usr/share/icons/biglinux-icons-material/22/places/folder-remote.svg

<svg width="22" height="22" version="1.1" xmlns="http://www.w3.org/2000/svg">
 <defs>
  <style id="current-color-scheme" type="text/css">.ColorScheme-Text { color:#dedede; }</style>
 </defs>
 <path class="ColorScheme-Text" d="m4.9998 4c-1.108 0-2 0.892-2 2v9c0 1.108 0.892 2 2 2h5.5v1h-6.9453c-0.30778 0-0.55469 0.223-0.55469 0.5s0.24691 0.5 0.55469 0.5h14.891c0.30778 0 0.55469-0.223 0.55469-0.5s-0.24691-0.5-0.55469-0.5h-6.9453v-1h5.5c1.108 0 2-0.892 2-2v-8c0-1.108-0.892-2-2-2h-7.6289c-0.57985-0.0229-0.6047 0.076884-1.0391-0.35742-0.43381-0.43381-0.613-0.64213-1.332-0.64258h-2zm0 1h2c0.31116-1.7e-6 0.52033 1.414e-4 0.99805 0.4707 0.47877 0.47161 0.6388 0.5293 1 0.5293h8.002c0.554 0 1 0.446 1 1v1h-14v-2c0-0.554 0.446-1 1-1zm-1 4h14v6c0 0.554-0.446 1-1 1h-12c-0.554 0-1-0.446-1-1z" fill="currentColor"/>
</svg>

<svg xmlns="http://www.w3.org/2000/svg" width="22" height="22"><path fill="currentColor" d="M5 4c-1.108 0-2 .892-2 2v9c0 1.108.892 2 2 2h5.5v1H3.555c-.308 0-.555.223-.555.5s.247.5.555.5h14.89c.308 0 .555-.223.555-.5s-.247-.5-.554-.5H11.5v-1H17c1.108 0 2-.892 2-2V7c0-1.108-.892-2-2-2H9.371c-.58-.023-.604.077-1.039-.357C7.898 4.209 7.72 4 7 4H5zm0 1h2c.311 0 .52 0 .998.47.479.472.639.53 1 .53H17c.554 0 1 .446 1 1v1H4V6c0-.554.446-1 1-1zM4 9h14v6c0 .554-.446 1-1 1H5c-.554 0-1-.446-1-1z" style="color:#dedede"/></svg>
